X:196
%%topspace -50
%%musicspace -10
T:The Dashing White Sergeant
M:2/4
L:1/8
K:D
F/E/ | "D"DD D/E/F/G/ | AA Af/e/ | dB AF | "A7"BE E/G/F/E/ | "D"DD D/E/F/G/ | 
AA Af | "E7"ed cB |1 "A7"A/G/A/B/ A/G/F/E/ :|2 "A"A/c/e/c/ AE || "A"AA/B/ cc/d/ | 
ee/c/ A3/A/ | "Bm"BB/c/ dd/e/ | ff/d/ B3/B/ | "A"cA/A/ "D"dA/A/ | "A7"eA/A/ "D"fA/A/ | 
"G"gf ed | "A7"cB AG | "D"Fd d/c/d/e/ | dA A3/^A/ | "Em"Be e/^d/e/f/ | 
eB B2 | "D"Ad d/c/d/e/ | fd d/c/d/e/ | "A7"f2 a2 | "D"d3 |]

